X: 1
T: The Prince Of Wales
R: reel
M: 4/4
L: 1/8
K: Amaj
|:"A"c2 BA A3 B    |"A"ceeA "D"feca     |"F#m"c2 BA A3 c     |"F#m"Bcac "E"BGGB|
|"A"c2 BA A3 B     |"A"ceeA "F#m"feca   |"D"d3 e faaf        |1 "E"ecBd cAAB  :|2 "E"ecdc "A"A2 z2 |]
|:"A" (3cBA eA fAeA| "A"(3cBA eA "D"feca| "F#m"(3cBA eA fAec |"F#m"Bcac "E"BGGB|
|"A" (3cBA eA fAeA |"F#m"(3cBA eA fece  |"D"d3 e faaf        |1 "E"ecBd cAAB  :|2 "E"ecBc "A"A2 z2 |]
